X:1
T:Title
%%score 1 { 2 | 3 } { 4 | 5 }
L:1/8
Q:1/4=100
M:3/8
K:Eb
V:1 treble nm="Grand Piano, Staff-1"
V:2 treble nm="Grand Piano, Right Hand"
V:3 treble 
V:4 bass nm="Grand Piano, Left Hand"
V:5 bass 
V:1
 CEF | G2 G | cGA | B3 | eBc | B2 G | FEF | G3 | G3 | G3 | G3 | G2 z | z3 | z3 | z3 | z3 | CEF | %17
w: By~P.~Cornelius * *|||||||||||||||||
 G2 G | cGA | B3 | eBc | B2 G | FEF | G3 | G3 | G3 | G2 z | z z G | cG=A | G2 =E | DCD | =E2 A | %32
w: |||||||||||||||
 =B2 A | =E2 A | =BAc | =B3 | =B3 | =B3 | =B3 | =B2 z | z3 | z3 | z3 | z z B | eBc | B2 G | FEF | %47
w: |||||||||||||||
 G2 =B | d2 =B | G2 =B | d=Be | d3 | d3 | d3 | d3 | d2 z | z3 | z3 | z3 | z3 | CEF | G2 G | cGA | %63
w: ||||||||||||||||
 B2 B | eBc | B2 G | FEF | G3 | G3 | G3 | G3 | G2 z | z3 | z3 | z3 | z3 | CEF | G2 G | cGA | B2 B | %80
w: |||||||||||||||||
 eBc | B2 G | FEF | G3 | G3 | G3 | G3 | G z z | z3 | z z G | c3 | c3 | c=B=A | G3 | =A3 | F3 | D3 | %97
w: |||||||||||||||||
 C3 | C3 | C3 | C3 | C z z | z3 | z3 | z3 | z3 |] %106
w: |||||||||
V:2
 z3 | Gcc | z3 | Bde | z z c | z BG | FEF | G2 G | cGc | B2 G | cGc | B2 G | BGB | =A=E_E | D3 | %15
w: |bove~ * on~||morn~ * *|the~|* that~|Christ~ * is~|born:~ *||||||||
 G3 | C z z | G=Bc | z3 | Bde | z z c | z BG | FEF | G2 =B | d2 =B | G2 =B | d=Be | d2 G | cG=A | %29
w: |Spread~|tid * ings~||wide,~ * *|of~|* this~|Christ * mas|tide.~ *||||* In~|faith~ * we~|
 G2 =E | DCD | =E=B,E | A2 =E | =B,2 =E | A=E=A | A2 =B | d=Bf | =B2 B | d=Bf | =B2 d | c=Bf | %41
w: cel e|brate~ * the~|day~ * When~|Je sus~|in~ the~|man * ger~|lay,~ *||||||
 eda | g3 | f2 B | eBc | B2 G | FEF | G2 =B | d2 =B | G2 =B | d=Be | d2 d | fda | d2 d | fda | %55
w: ||* With~|joy * ful~|song~ we~|hail~ * the~|birth~ Of~|Him~ Who~|brought~ good|will~ * on~|earth.~ *||||
 d2 g | ggg | gfc | e3 | d3 | c z z | G=Bc | z3 | Bde | z z c | z BG | FEF | G2 G | cGc | B2 G | %70
w: |||||Je|born~ * to~||all,~ * Both~|and~|* from~|sin�s~ * base~|thrall.~ *|||
 cGc | B2 G | BGB | =A=E_E | D3 | G3 | C z z | G=Bc | z3 | Bde | z z c | z BG | FEF | G2 =B | %84
w: ||||||Ren|thanks~ * this~||day,~ * That~|thy~|* hath~|purged~ * a|way,~ *|
 d2 =B | G2 =B | d=Be | d2 G | c2 =A | G2 c | =e_e=e | =a3 | =a z d | =e3 | =e3 | f3 | =B3 | %97
w: |||||* That~|He~ * *||* thy~|sin~|hath~|purged~|a|
 c2 =E | DCD | =E3 | DCD | =E3 | DCD | =E2 E | G2 G | C2 z |] %106
w: way.~ *|||||||||
V:3
 z3 | CFE | z3 | EAG | z z [CE] | z [B,E][B,E] | CCD | E2 E | EEE | D2 D | EEE | D2 E | DDD | %13
 _DDD | C3 | =B,3 | G, z z | CFE | z3 | EAG | z z [CE] | z EE | CCC | =B,2 [DG] | [DG]2 [DG] | %25
 [=B,D]2 [DG] | GGE | [DG]2 F | =EEF | =E2 C | =A,A,A, | A,A,A, | [A,=B,]2 [A,B,] | A,2 [A,=B,] | %34
 [A,=B,][A,B,][=A,C] | [A,=B,]2[K:treble] A | AA=A | A2 A | AA=A | A2 A | AAA | AAA | A3 | =A2 _A | %44
 GGA | G2 E | CCC | =B,2 [DG] | [DG]2 [DG] | [=B,D]2 [DG] | [DG] z [EG] | [DG]2 =B | =BBc | =B2 B | %54
 =BBc | =B2 d | dc[Gc] | [Ac][Ac]G | _G3 | F3 | E z z | CFE | z3 | EAG | z z [CE] | z EE | CCD | %67
 E2 E | EEE | D2 D | EEE | D2 E | DDD | _DDD | C3 | =B,3 | G, z z | CCE | z3 | EAE | z z [CE] | %81
 z [B,E][B,E] | CCC | =B,2 [DG] | [DG]2 [DG] | [=B,D]2 [DG] | [DG][DG][EG] | [DG]2 [=B,F] | %88
 [C=E]2 [CF] | C2 [=EG] | [=E=Ac][_EAc][=EAc] | [=Acd]3 | [=Acd] z [CDA] | [CG]3 | [_D=A]3 | %95
 [D=A]3 | [DF]3 | [C=E]2[K:bass] G, | =B,B,B, | G,3 | =A,A,A, | G,3 | z3 | z3 | =E2 D | z3 |] %106
V:4
 z3 | G,G,G, | z3 | B,B,B, | z z A, | z G,E, | A,2 F, | B,2 G, | G,2 G, | G,2 B, | G,2 G, | %11
 G,2 G, | G,2 G, | G,2 G, | _G,3 | F,3 | E, z z | G,G,G, | z3 | B,B,B, | z z A, | z G,E, | A,3 | %23
 G,,D,G, | B,2 G, | G,,D,G, | =B,G,C | =B,2 B, | C2 C | C2 G, | F,3 | =E,E,E, | =E,,=B,,=E, | %33
 =E,,=B,,=E, | =E,2 E, | =E,2 =B, | =B,2 B, | D2 D | =B,2 B, | D2[K:bass] =B, | D2 =B, | =B,2 B, | %42
 D3 | D2 D | E2 E | E2[K:bass] B, | A,3 | G,,D,G, | =B,G,D, | G,,D,G, | =B,G,C | =B,2 F, | D2 D | %53
 F2 F | D2 D | F2 F | =E2 _E | D2 E | A,3 | =B,3 | C z z | G,G,G, | z3 | B,B,B, | z z A, | z G,E, | %66
 A,2 F, | B,2 G, | G,2 G, | G,2 B, | G,2 G, | G,2 G, | G,2 G, | G,2 G, | _G,3 | F,3 | E, z z | %77
 G,G,G, | z3 | B,B,B, | z z A, | z G,E, | A,3 | G,D,G, | =B,G,D, | G,,D,G, | =B,G,C | =B,D,G, | %88
 C,2 F, | =E,2 C, | =A,,2 G,, | _G,,=A,,D, | _G, z G, | G,3 | G,3 | G,3 | G,3 | C,2 C, | C,3 | %99
 C,3 | C,3 | C,3 | =A,2 A, | A,2 G, | [F,=B,]3 | [=E,G,]2 z |] %106
V:5
 z3 | E,D,C, | z3 | G,F,E, | z3 | z3 | z3 | E,2 E, | C,2 C, | G,,2 G, | C,2 C, | G,,2 C, | %12
 G,,2 G,, | =A,,2 A,, | D,3 | G,,3 | [C,,G,,] z z | E,D,C, | z3 | G,F,E, | z z A,, | z3 | A,,3 | %23
 z G,,G,, | G,,2 G,, | z G,,G,, | G,,G,,G,, | G,,2 G, | C,2 F, | C,2 C, | F,,3 | =E,,=B,, z | z3 | %33
 z3 | =E,,2 E,, | =E,,2 =E, | =E,2 =B,, | =E,2 E, | =E,2 =B,, | =E,2 E, | =E,2 E, | F,2 F, | %42
 [B,,F,]3 | [B,,F,]2 B, | E,2 A, | E,2 E, | A,,3 | z G,,G,, | G,,G,,G,, | z G,,G,, | G,,G,,C, | %51
 G,,2 D, | G,2 D, | G,2 G, | G,2 D, | G,2 [G,=B,] | G,2 G, | G,2 G, | G,3 | G,3 | E, z z | E,D,C, | %62
 z3 | G,F,E, | z z A,, | z3 | z3 | E,2 E, | C,2 C, | G,,2 G, | C,2 C, | G,,2 C, | G,,2 G,, | %73
 =A,,2 A,, | D,3 | G,,3 | [C,,G,,] z z | E,D,C, | z3 | G,F,E, | z z [A,,E,] | z G,,E,, | A,,3 | %83
 G,,G,,G,, | G,,G,,G,, | z G,,G,, | G,,G,,C, | G,, z z | C,,2 F,, | =E,,2 C,, | =A,,,2 G,,, | %91
 _G,,,=A,,,D,, | _G,, z G,, | G,,3 | G,,3 | G,,3 | G,,3 | C,,2 C,, | F,,3 | C,,3 | F,,3 | C,,3 | %102
 [F,,C,]2 [F,,C,] | [=E,,=B,,]2 [C,,C,] | [G,,,G,,]3 | [C,,C,]2 z |] %106

